src/images_karasa_jaga_svg/cmd/lc_viewformasgrid.svg

<svg height="24" viewBox="0 0 6.3499999 6.3500002" width="24" xmlns="http://www.w3.org/2000/svg" xmlns:xlink="http://www.w3.org/1999/xlink"><linearGradient id="a" gradientTransform="matrix(.28123848 0 0 .27608995 1.577984 273.3727)" gradientUnits="userSpaceOnUse" x1="46.048" x2="46.048" y1="128.01709" y2="16.6203"><stop offset="0" stop-color="#c7cdd7"/><stop offset="1" stop-color="#fff"/></linearGradient><linearGradient id="b" gradientUnits="userSpaceOnUse" x1="126.86649" x2="126.86649" y1="-11.827888" y2="128.003113"><stop offset="0" stop-color="#fff"/><stop offset="1" stop-color="#555"/></linearGradient><filter id="c"><feGaussianBlur stdDeviation="1.5999062"/></filter><linearGradient id="d" gradientTransform="matrix(.03116178 0 0 .04506859 -.483098 242.98515)" gradientUnits="userSpaceOnUse" x1="399.77466" x2="399.77466" y1="731.09662" y2="480.60214"><stop offset="0" stop-color="#cbcbcd"/><stop offset=".5" stop-color="#e0e0e2"/><stop offset="1" stop-color="#f2f2f2"/></linearGradient><linearGradient id="e" gradientTransform="matrix(.03116178 0 0 .04506859 30.161964 334.14685)" gradientUnits="userSpaceOnUse" x1="-333.0289" x2="-333.0289" y1="-1473.6504" y2="-776.61371"><stop offset="0" stop-color="#fff"/><stop offset=".49140647" stop-color="#fff"/><stop offset="1" stop-color="#dcdcdc"/></linearGradient><linearGradient id="f" gradientUnits="userSpaceOnUse" x1="20.01213" x2="20.01213" y1="281.606043" y2="275.448448"><stop offset="0" stop-color="#e8e8e8"/><stop offset=".234375" stop-color="#fff"/><stop offset=".69675177" stop-color="#ededed"/><stop offset=".90625" stop-color="#6c6c6c"/><stop offset="1" stop-color="#2b2b2b"/></linearGradient><linearGradient id="g" gradientUnits="userSpaceOnUse" x1="10.775738" x2="12.315137" xlink:href="#h" y1="278.527246" y2="278.527246"/><linearGradient id="h"><stop offset="0" stop-color="#aaa"/><stop offset="1" stop-color="#aaa" stop-opacity="0"/></linearGradient><linearGradient id="i" gradientUnits="userSpaceOnUse" x1="-29.641371" x2="-28.101972" xlink:href="#h" y1="278.527246" y2="278.527246"/><filter id="j"><feGaussianBlur stdDeviation=".50622511"/></filter><linearGradient id="k" gradientTransform="matrix(.26458333 0 0 .25823082 -.654811 -304.29908)" gradientUnits="userSpaceOnUse" x1="101.3308" x2="101.3308" y1="51.34185" y2="66.668198"><stop offset="0" stop-color="#cbcbcd"/><stop offset=".66545075" stop-color="#e0e0e2"/><stop offset="1" stop-color="#fff"/></linearGradient><g transform="matrix(.171875 0 0 .171875 .266052 -45.489506)"><path d="m9.3814603 6.4002109h73.0982937c.76597 0 1.38261.72808 1.38261 1.63246v60.7371801c0 .90439-.61664 1.63247-1.38261 1.63247h-73.0982937c-.765966 0-1.38261-.72808-1.38261-1.63247v-60.7371801c0-.90438.616644-1.63246 1.38261-1.63246z" style="opacity:.4;fill:none;stroke:#000;stroke-width:4;stroke-linecap:round;stroke-linejoin:round;stroke-dashoffset:4;filter:url(#c)" transform="matrix(.38484968 0 0 .38484968 -1.536797 265.28794)"/><path d="m2.0715174 267.75147h28.1361286c.294822 0 .532174.28019.532174.62823v23.37391h-29.2004758v-23.37391c0-.34804.2373492-.62823.5321732-.62823z" fill="url(#d)"/><path d="m2.0685138 267.75147c-.2948242 0-.5291684.27734-.5291684.62537v23.37962c0 .34804.2343442.62538.5291684.62538h28.1421382c.294826 0 .529168-.27734.529168-.62538v-23.37962c0-.34803-.234342-.62537-.529168-.62537zm.3607964.93807h27.4205448c.280083 0 .505116.26273.505116.58929v22.12886c0 .32656-.225033.58931-.505116.58931h-27.4205448c-.2800827 0-.5051152-.26275-.5051152-.58931v-22.12886c0-.32656.2250325-.58929.5051152-.58929z" fill="url(#e)"/><g transform="matrix(1.3845916 0 0 .99998322 -11.841249 -1.5344)"><rect fill="url(#f)" height="6.144926" rx="1.078735" ry="1.539399" width="18.893854" x="10.775736" y="275.44843"/><rect fill="url(#g)" height="6.157596" rx="1.040345" ry="1.539399" width="4.618197" x="10.775736" y="275.44843"/><rect fill="url(#i)" height="6.157596" rx=".963569" ry="1.539399" transform="scale(-1 1)" width="4.618195" x="-29.641371" y="275.44843"/></g><rect fill-opacity=".924855" filter="url(#j)" height="12.74204" rx="1.998241" ry="2.747028" transform="matrix(.35105195 0 0 -.31938175 -43.618298 179.806981)" width="47.998806" x="146.29366" y="-344.5433"/><rect fill="url(#k)" height="3.527703" rx=".766373" ry=".759892" transform="matrix(1.3347929 0 0 -1.2876134 -15.85599 -85.893963)" width="12.699682" x="17.638449" y="-291.35568"/><text font-family="sans-serif" font-size="4.636236" letter-spacing="0" stroke-width=".115906" word-spacing="0" x="12.727488" y="288.65277"><tspan font-family="FreeSans" font-weight="600" stroke-width=".115906" x="12.727488" y="288.65277">OK</tspan></text></g><g transform="matrix(.171875 0 0 .171875 .264237 -44.961125)"><path d="m10.775606 278.52753h21.550352v16.932747h-21.550352z" fill="url(#a)"/><path d="m34.908203 52.371094v5.8125 17.451172 5.8125 17.460937 5.812497 17.45899 5.84375h5.8125 23.28125 5.8125 23.28125 5.8125 23.281247 5.8125v-5.84375-69.808596h-29.093747-5.8125-23.28125-5.8125-23.28125zm5.8125 5.8125h23.28125v17.451172h-23.28125zm29.09375 0h23.28125v17.451172h-23.28125zm29.09375 0h23.281247v17.451172h-23.281247zm-58.1875 23.263672h23.28125v17.460937h-23.28125zm29.09375 0h23.28125v17.460937h-23.28125zm29.09375 0h23.281247v17.460937h-23.281247zm-58.1875 23.273434h23.28125v17.45899h-23.28125zm29.09375 0h23.28125v17.45899h-23.28125zm29.09375 0h23.281247v17.45899h-23.281247z" fill="url(#b)" transform="matrix(.26458333 0 0 .26458333 0 263.13332)"/></g></svg>

<?xml version="1.0" encoding="UTF-8" standalone="no"?>
<!-- Created with Inkscape (http://www.inkscape.org/) -->

<svg
   xmlns:dc="http://purl.org/dc/elements/1.1/"
   xmlns:cc="http://creativecommons.org/ns#"
   xmlns:rdf="http://www.w3.org/1999/02/22-rdf-syntax-ns#"
   xmlns:svg="http://www.w3.org/2000/svg"
   xmlns="http://www.w3.org/2000/svg"
   xmlns:xlink="http://www.w3.org/1999/xlink"
   xmlns:sodipodi="http://sodipodi.sourceforge.net/DTD/sodipodi-0.dtd"
   xmlns:inkscape="http://www.inkscape.org/namespaces/inkscape"
   width="128"
   height="128"
   viewBox="0 0 33.866666 33.866668"
   version="1.1"
   id="svg36466"
   inkscape:version="0.92.3 (unknown)"
   sodipodi:docname="lc_viewformasgrid.svg"
   inkscape:export-filename="/home/rizmut/Dokumen/Rizmut/Github/libreoffice-style-karasa-jaga/build/images_karasa_jaga/cmd/lc_viewformasgrid.png"
   inkscape:export-xdpi="16.500002"
   inkscape:export-ydpi="16.500002">
  <defs
     id="defs36460">
    <linearGradient
       inkscape:collect="always"
       xlink:href="#linearGradient3323"
       id="linearGradient3733"
       x1="46.048"
       y1="128.01709"
       x2="46.048"
       y2="16.6203"
       gradientUnits="userSpaceOnUse"
       gradientTransform="matrix(0.28123848,0,0,0.27608995,1.5779836,273.3727)" />
    <linearGradient
       id="linearGradient3323">
      <stop
         style="stop-color:#c7cdd7;stop-opacity:1;"
         offset="0"
         id="stop3325" />
      <stop
         style="stop-color:#ffffff;stop-opacity:1;"
         offset="1"
         id="stop3327" />
    </linearGradient>
    <linearGradient
       gradientTransform="translate(5.81485,29.089058)"
       inkscape:collect="always"
       xlink:href="#linearGradient10867"
       id="linearGradient5276"
       x1="121.05164"
       y1="-40.916946"
       x2="121.05164"
       y2="98.914055"
       gradientUnits="userSpaceOnUse" />
    <linearGradient
       id="linearGradient10867"
       inkscape:collect="always">
      <stop
         id="stop10869"
         offset="0"
         style="stop-color:#ffffff;stop-opacity:1" />
      <stop
         id="stop10871"
         offset="1"
         style="stop-color:#555555;stop-opacity:1" />
    </linearGradient>
    <filter
       inkscape:collect="always"
       id="filter8972">
      <feGaussianBlur
         inkscape:collect="always"
         stdDeviation="1.5999062"
         id="feGaussianBlur8974" />
    </filter>
    <linearGradient
       inkscape:collect="always"
       xlink:href="#linearGradient7422"
       id="linearGradient3333"
       gradientUnits="userSpaceOnUse"
       gradientTransform="matrix(0.03116178,0,0,0.04506859,-0.48309752,242.98515)"
       x1="399.77466"
       y1="731.09662"
       x2="399.77466"
       y2="480.60214" />
    <linearGradient
       id="linearGradient7422">
      <stop
         id="stop7424"
         offset="0"
         style="stop-color:#cbcbcd;stop-opacity:1;" />
      <stop
         style="stop-color:#e0e0e2;stop-opacity:1;"
         offset="0.5"
         id="stop7426" />
      <stop
         id="stop7428"
         offset="1"
         style="stop-color:#f2f2f2;stop-opacity:1;" />
    </linearGradient>
    <linearGradient
       inkscape:collect="always"
       xlink:href="#linearGradient4711"
       id="linearGradient3285"
       gradientUnits="userSpaceOnUse"
       gradientTransform="matrix(0.03116178,0,0,0.04506859,30.161964,334.14685)"
       x1="-333.0289"
       y1="-1473.6504"
       x2="-333.0289"
       y2="-776.61371" />
    <linearGradient
       id="linearGradient4711">
      <stop
         style="stop-color:#ffffff;stop-opacity:1;"
         offset="0"
         id="stop4713" />
      <stop
         id="stop4715"
         offset="0.49140647"
         style="stop-color:#ffffff;stop-opacity:1;" />
      <stop
         style="stop-color:#dcdcdc;stop-opacity:1;"
         offset="1"
         id="stop4717" />
    </linearGradient>
    <linearGradient
       inkscape:collect="always"
       xlink:href="#linearGradient3956"
       id="linearGradient3922"
       x1="127.62865"
       y1="292.8761"
       x2="127.62865"
       y2="276.8761"
       gradientUnits="userSpaceOnUse"
       gradientTransform="matrix(0.38484968,0,0,0.38484968,-29.105715,168.89277)" />
    <linearGradient
       id="linearGradient3956">
      <stop
         id="stop3958"
         offset="0"
         style="stop-color:#e8e8e8;stop-opacity:1;" />
      <stop
         style="stop-color:#ffffff;stop-opacity:1;"
         offset="0.234375"
         id="stop3960" />
      <stop
         style="stop-color:#ededed;stop-opacity:1;"
         offset="0.69675177"
         id="stop3962" />
      <stop
         id="stop3964"
         offset="0.90625"
         style="stop-color:#6c6c6c;stop-opacity:1" />
      <stop
         id="stop3966"
         offset="1"
         style="stop-color:#2b2b2b;stop-opacity:1" />
    </linearGradient>
    <linearGradient
       inkscape:collect="always"
       xlink:href="#linearGradient3928"
       id="linearGradient3934"
       x1="103.62865"
       y1="284.8761"
       x2="107.62865"
       y2="284.8761"
       gradientUnits="userSpaceOnUse"
       gradientTransform="matrix(0.38484968,0,0,0.38484968,-29.105715,168.89277)" />
    <linearGradient
       inkscape:collect="always"
       id="linearGradient3928">
      <stop
         style="stop-color:#aaaaaa;stop-opacity:1;"
         offset="0"
         id="stop3930" />
      <stop
         style="stop-color:#aaaaaa;stop-opacity:0;"
         offset="1"
         id="stop3932" />
    </linearGradient>
    <linearGradient
       inkscape:collect="always"
       xlink:href="#linearGradient3928"
       id="linearGradient3938"
       gradientUnits="userSpaceOnUse"
       x1="103.62865"
       y1="284.8761"
       x2="107.62865"
       y2="284.8761"
       gradientTransform="matrix(0.38484968,0,0,0.38484968,-69.522824,168.89277)" />
    <filter
       inkscape:collect="always"
       id="filter4812">
      <feGaussianBlur
         inkscape:collect="always"
         stdDeviation="0.50622511"
         id="feGaussianBlur4814" />
    </filter>
    <linearGradient
       inkscape:collect="always"
       xlink:href="#linearGradient4782"
       id="linearGradient4780"
       gradientUnits="userSpaceOnUse"
       gradientTransform="matrix(0.26458333,0,0,0.25823082,-0.65481115,-304.29908)"
       x1="101.3308"
       y1="51.34185"
       x2="101.3308"
       y2="66.668198" />
    <linearGradient
       id="linearGradient4782">
      <stop
         id="stop4784"
         offset="0"
         style="stop-color:#cbcbcd;stop-opacity:1;" />
      <stop
         style="stop-color:#e0e0e2;stop-opacity:1;"
         offset="0.66545075"
         id="stop4786" />
      <stop
         id="stop4788"
         offset="1"
         style="stop-color:#ffffff;stop-opacity:1;" />
    </linearGradient>
  </defs>
  <sodipodi:namedview
     id="base"
     pagecolor="#ffffff"
     bordercolor="#666666"
     borderopacity="1.0"
     inkscape:pageopacity="0.0"
     inkscape:pageshadow="2"
     inkscape:zoom="1.979899"
     inkscape:cx="42.028131"
     inkscape:cy="-1.4112286"
     inkscape:document-units="mm"
     inkscape:current-layer="layer1"
     showgrid="true"
     units="px"
     inkscape:window-width="1366"
     inkscape:window-height="706"
     inkscape:window-x="0"
     inkscape:window-y="0"
     inkscape:window-maximized="1"
     inkscape:snap-global="true">
    <inkscape:grid
       type="xygrid"
       id="grid37011"
       spacingx="1.5393723"
       spacingy="1.5393723"
       empspacing="2" />
  </sodipodi:namedview>
  <metadata
     id="metadata36463">
    <rdf:RDF>
      <cc:Work
         rdf:about="">
        <dc:format>image/svg+xml</dc:format>
        <dc:type
           rdf:resource="http://purl.org/dc/dcmitype/StillImage" />
        <dc:title />
      </cc:Work>
    </rdf:RDF>
  </metadata>
  <g
     inkscape:label="Layer 1"
     inkscape:groupmode="layer"
     id="layer1"
     transform="translate(0,-263.13332)">
    <g
       transform="translate(0.00905819,-3.066079)"
       id="g1165">
      <path
         transform="matrix(0.38484968,0,0,0.38484968,-1.5367971,265.28794)"
         inkscape:connector-curvature="0"
         sodipodi:nodetypes="ccccccccc"
         id="rect3391"
         d="M 9.3814603,6.4002109 H 82.479754 c 0.76597,0 1.38261,0.72808 1.38261,1.63246 V 68.769851 c 0,0.90439 -0.61664,1.63247 -1.38261,1.63247 H 9.3814603 c -0.765966,0 -1.38261,-0.72808 -1.38261,-1.63247 V 8.0326709 c 0,-0.90438 0.616644,-1.63246 1.38261,-1.63246 z"
         style="opacity:0.4;fill:none;stroke:#000000;stroke-width:4;stroke-linecap:round;stroke-linejoin:round;stroke-miterlimit:4;stroke-dashoffset:4;stroke-opacity:1;filter:url(#filter8972)" />
      <path
         inkscape:connector-curvature="0"
         sodipodi:nodetypes="ccccccc"
         id="rect2894"
         d="M 2.0715174,267.75147 H 30.207646 c 0.294822,0 0.532174,0.28019 0.532174,0.62823 v 23.37391 H 1.5393442 V 268.3797 c 0,-0.34804 0.2373492,-0.62823 0.5321732,-0.62823 z"
         style="fill:url(#linearGradient3333);fill-opacity:1;fill-rule:nonzero;stroke:none;stroke-width:0.38484967" />
      <path
         inkscape:connector-curvature="0"
         sodipodi:nodetypes="cccccccccccccccccc"
         id="rect3821"
         d="m 2.0685138,267.75147 c -0.2948242,0 -0.5291684,0.27734 -0.5291684,0.62537 v 23.37962 c 0,0.34804 0.2343442,0.62538 0.5291684,0.62538 H 30.210652 c 0.294826,0 0.529168,-0.27734 0.529168,-0.62538 v -23.37962 c 0,-0.34803 -0.234342,-0.62537 -0.529168,-0.62537 z m 0.3607964,0.93807 H 29.849855 c 0.280083,0 0.505116,0.26273 0.505116,0.58929 v 22.12886 c 0,0.32656 -0.225033,0.58931 -0.505116,0.58931 H 2.4293102 c -0.2800827,0 -0.5051152,-0.26275 -0.5051152,-0.58931 v -22.12886 c 0,-0.32656 0.2250325,-0.58929 0.5051152,-0.58929 z"
         style="fill:url(#linearGradient3285);fill-opacity:1;fill-rule:nonzero;stroke:none;stroke-width:0.38484967" />
      <g
         transform="matrix(1.3845916,0,0,0.99998322,-11.841249,-1.5344003)"
         id="g3592">
        <rect
           style="fill:url(#linearGradient3922);fill-opacity:1;stroke:none;stroke-width:0.38484967"
           id="rect3142"
           width="18.893854"
           height="6.1449261"
           x="10.775736"
           y="275.44843"
           rx="1.0787352"
           ry="1.5393994" />
        <rect
           ry="1.5393994"
           rx="1.0403455"
           y="275.44843"
           x="10.775736"
           height="6.1575961"
           width="4.6181974"
           id="rect3926"
           style="fill:url(#linearGradient3934);fill-opacity:1;stroke:none;stroke-width:0.38484967" />
        <rect
           style="fill:url(#linearGradient3938);fill-opacity:1;stroke:none;stroke-width:0.38484967"
           id="rect3936"
           width="4.6181951"
           height="6.1575961"
           x="-29.641371"
           y="275.44843"
           rx="0.96356905"
           ry="1.5393994"
           transform="scale(-1,1)" />
      </g>
      <g
         transform="matrix(1.3347929,0,0,1.2876134,-15.85599,-85.893963)"
         id="g3581">
        <rect
           transform="matrix(0.26300106,0,0,-0.24804165,-20.798963,206.35149)"
           rx="1.9982411"
           ry="2.7470281"
           y="-344.5433"
           x="146.29366"
           height="12.74204"
           width="47.998806"
           id="rect4790"
           style="fill:#000000;fill-opacity:0.92485549;stroke:none;filter:url(#filter4812)" />
        <rect
           style="fill:url(#linearGradient4780);fill-opacity:1;stroke:none;stroke-width:0.26458332"
           id="rect4778"
           width="12.699682"
           height="3.5277026"
           x="17.638449"
           y="-291.35568"
           ry="0.75989193"
           rx="0.76637298"
           transform="scale(1,-1)" />
      </g>
      <text
         id="text3596"
         y="288.65277"
         x="12.727488"
         style="font-style:normal;font-weight:normal;font-size:4.63623619px;line-height:125%;font-family:sans-serif;letter-spacing:0px;word-spacing:0px;fill:#000000;fill-opacity:1;stroke:none;stroke-width:0.1159059px;stroke-linecap:butt;stroke-linejoin:miter;stroke-opacity:1"
         xml:space="preserve"><tspan
           style="font-style:normal;font-variant:normal;font-weight:600;font-stretch:normal;font-family:FreeSans;-inkscape-font-specification:'FreeSans Semi-Bold';stroke-width:0.1159059px"
           y="288.65277"
           x="12.727488"
           id="tspan3594"
           sodipodi:role="line">OK</tspan></text>
    </g>
    <g
       id="g877">
      <rect
         style="fill:url(#linearGradient3733);fill-opacity:1;stroke:none;stroke-width:0.26458332"
         id="rect3723"
         width="21.550352"
         height="16.932747"
         x="10.775606"
         y="278.52753" />
      <path
         transform="matrix(0.26458333,0,0,0.26458333,0,263.13332)"
         id="rect5250"
         d="M 34.908203 52.371094 L 34.908203 58.183594 L 34.908203 75.634766 L 34.908203 81.447266 L 34.908203 98.908203 L 34.908203 104.7207 L 34.908203 122.17969 L 34.908203 128.02344 L 40.720703 128.02344 L 64.001953 128.02344 L 69.814453 128.02344 L 93.095703 128.02344 L 98.908203 128.02344 L 122.18945 128.02344 L 128.00195 128.02344 L 128.00195 122.17969 L 128.00195 52.371094 L 98.908203 52.371094 L 93.095703 52.371094 L 69.814453 52.371094 L 64.001953 52.371094 L 40.720703 52.371094 L 34.908203 52.371094 z M 40.720703 58.183594 L 64.001953 58.183594 L 64.001953 75.634766 L 40.720703 75.634766 L 40.720703 58.183594 z M 69.814453 58.183594 L 93.095703 58.183594 L 93.095703 75.634766 L 69.814453 75.634766 L 69.814453 58.183594 z M 98.908203 58.183594 L 122.18945 58.183594 L 122.18945 75.634766 L 98.908203 75.634766 L 98.908203 58.183594 z M 40.720703 81.447266 L 64.001953 81.447266 L 64.001953 98.908203 L 40.720703 98.908203 L 40.720703 81.447266 z M 69.814453 81.447266 L 93.095703 81.447266 L 93.095703 98.908203 L 69.814453 98.908203 L 69.814453 81.447266 z M 98.908203 81.447266 L 122.18945 81.447266 L 122.18945 98.908203 L 98.908203 98.908203 L 98.908203 81.447266 z M 40.720703 104.7207 L 64.001953 104.7207 L 64.001953 122.17969 L 40.720703 122.17969 L 40.720703 104.7207 z M 69.814453 104.7207 L 93.095703 104.7207 L 93.095703 122.17969 L 69.814453 122.17969 L 69.814453 104.7207 z M 98.908203 104.7207 L 122.18945 104.7207 L 122.18945 122.17969 L 98.908203 122.17969 L 98.908203 104.7207 z "
         style="opacity:1;fill:url(#linearGradient5276);fill-opacity:1;stroke:none;stroke-width:0.99999994" />
    </g>
  </g>
</svg>
